Newaita-dark/actions/24/fill-color.svg

<svg height="24" viewBox="0 0 24 24" width="24" xmlns="http://www.w3.org/2000/svg"><path d="m8.273438 18.382812c0 2 1.609374 3.609376 3.605468 3.609376 2 0 3.609375-1.609376 3.609375-3.609376 0-2.707031-1.804687-4.507812-3.609375-7.210937-1.800781 2.703125-3.605468 4.503906-3.605468 7.210937zm0 0" fill="#ff7043"/><path d="m2.863281 9.367188c0 .957031.378907 1.875 1.054688 2.550781.675781.679687 1.597656 1.058593 2.554687 1.054687.957032.003906 1.875-.378906 2.550782-1.054687.675781-.675781 1.054687-1.59375 1.054687-2.550781 0-2.707032-1.804687-4.507813-3.605469-7.214844-1.804687 2.707031-3.609375 4.507812-3.609375 7.214844zm0 0" fill="#7e57c2"/><path d="m13.683594 9.367188c0 2 1.613281 3.605468 3.609375 3.605468 1.996093 0 3.609375-1.609375 3.609375-3.605468 0-2.707032-1.808594-4.507813-3.613282-7.214844-1.800781 2.707031-3.605468 4.507812-3.605468 7.214844zm0 0" fill="#42a5f5"/></svg>

<svg xmlns="http://www.w3.org/2000/svg" xmlns:xlink="http://www.w3.org/1999/xlink" width="24px" height="24px" viewBox="0 0 24 24" version="1.1">
<g id="surface1">
<path style=" stroke:none;fill-rule:nonzero;fill:rgb(100%,43.921569%,26.274511%);fill-opacity:1;" d="M 8.273438 18.382812 C 8.273438 20.382812 9.882812 21.992188 11.878906 21.992188 C 13.878906 21.992188 15.488281 20.382812 15.488281 18.382812 C 15.488281 15.675781 13.683594 13.875 11.878906 11.171875 C 10.078125 13.875 8.273438 15.675781 8.273438 18.382812 Z M 8.273438 18.382812 "/>
<path style=" stroke:none;fill-rule:nonzero;fill:rgb(49.411765%,34.117648%,76.078433%);fill-opacity:1;" d="M 2.863281 9.367188 C 2.863281 10.324219 3.242188 11.242188 3.917969 11.917969 C 4.59375 12.597656 5.515625 12.976562 6.472656 12.972656 C 7.429688 12.976562 8.347656 12.59375 9.023438 11.917969 C 9.699219 11.242188 10.078125 10.324219 10.078125 9.367188 C 10.078125 6.660156 8.273438 4.859375 6.472656 2.152344 C 4.667969 4.859375 2.863281 6.660156 2.863281 9.367188 Z M 2.863281 9.367188 "/>
<path style=" stroke:none;fill-rule:nonzero;fill:rgb(25.882354%,64.705884%,96.078432%);fill-opacity:1;" d="M 13.683594 9.367188 C 13.683594 11.367188 15.296875 12.972656 17.292969 12.972656 C 19.289062 12.972656 20.902344 11.363281 20.902344 9.367188 C 20.902344 6.660156 19.09375 4.859375 17.289062 2.152344 C 15.488281 4.859375 13.683594 6.660156 13.683594 9.367188 Z M 13.683594 9.367188 "/>
</g>
</svg>
